X: 1888
T: Stan Treacy's "G" Mazurka
B: australian traditional tunes wiki
M:3/4
L:1/8
R: Mazurka
Q: 1/4=100
K:G
V:1 
|:DB>A|"G"G3B/d/ (3edB|"D7"c3cd>c|A3 A/c/ B>A|"G"G3DB>A|
G3B/d/ (3edB|"D7"c3cd>c|A3A/c/ B>A|"G"G3:|
|:GB>d|"G"g3Bc>B|"D7"A3gf>e|d3B (3cBA|"G"B3GB>d|
g3Bc>B|"D7"A3gf>e|d3B (3cBA |1"G"B3:|2"G"G2-G||
% abcbook-tune_id 6342d53a430475bd50a16d3d


% abcbook-boost 0
% abcbook-tablature 
% abcbook-transpose 
% abcbook-lastupdated 1665324390771
% abcbook-soundfonts 
% abcbook-repeats 1
% NFF Book 2006

